src/dsmComponents/Icons/beacon-16px.svg

<?xml version="1.0" encoding="UTF-8"?>
<svg width="16px" height="10px" viewBox="0 0 16 10" version="1.1" xmlns="http://www.w3.org/2000/svg" xmlns:xlink="http://www.w3.org/1999/xlink">
    <!-- Generator: Sketch 59.1 (86144) - https://sketch.com -->
    <title>beacon-16px</title>
    <desc>Created with Sketch.</desc>
    <defs>
        <path d="M14.0474593,0.198604675 C16.6508469,2.85074095 16.6508469,7.1494288 14.0474593,9.80088608 C13.8128544,10.0398228 13.4481068,10.0637165 13.1874734,9.87256709 L13.104773,9.80088608 C12.8441009,9.53540086 12.8441009,9.10627896 13.104773,8.84079374 C15.1868164,6.72098589 15.1881498,3.2832578 13.1074397,1.16209197 L13.1041063,1.15869702 C12.8701015,0.920371408 12.846701,0.548400129 13.0343909,0.282850401 L13.104773,0.198604675 C13.3654451,-0.0662015583 13.7867872,-0.0662015583 14.0474593,0.198604675 Z M2.89522698,0.198604675 C3.15589908,0.464089898 3.15589908,0.893890784 2.89522698,1.15869702 C0.872022929,3.21925811 0.814217099,6.52350557 2.72180949,8.65513445 L2.89589366,8.84011475 C3.12989854,9.07905145 3.15329903,9.45053386 2.96609513,9.7159797 L2.89522698,9.80088608 C2.6606221,10.0398228 2.2958745,10.0637165 2.03524107,9.87256709 L1.95254068,9.80088608 C-0.650846893,7.1494288 -0.650846893,2.85074095 1.95254068,0.198604675 C2.21321278,-0.0662015583 2.63455489,-0.0662015583 2.89522698,0.198604675 Z M12.16202,2.12007944 C13.7240526,3.71027482 13.7240526,6.28975913 12.16202,7.8806335 C11.9280152,8.1195702 11.5627876,8.14346387 11.3020521,7.95231451 L11.2193337,7.8806335 C10.9593283,7.61514827 10.9593283,7.18602638 11.2193337,6.92054116 C12.2606888,5.85995824 12.2606888,4.14007571 11.2193337,3.08017178 C10.9593283,2.81468656 10.9593283,2.38420668 11.2193337,2.12007944 C11.4800058,1.85459422 11.9020146,1.85459422 12.16202,2.12007944 Z M4.78066626,2.11940045 C5.04133836,2.38420668 5.04133836,2.81400757 4.78066626,3.0788138 L4.78066626,3.07949279 C3.73931124,4.13939672 3.73931124,5.85927925 4.78066626,6.91986216 L4.78066626,6.92054116 C5.04133836,7.18534739 5.04133836,7.61446928 4.78133294,7.87995451 L4.78066626,7.8806335 C4.54606138,8.1195702 4.18131378,8.14346387 3.92068035,7.95231451 L3.83797996,7.8806335 C2.2766141,6.29043812 2.27594742,3.71231179 3.83597992,2.12211641 L3.83797996,2.11940045 C4.09865206,1.85391523 4.52066085,1.85391523 4.78066626,2.11940045 Z M8.0002,2.96257066 C9.10288964,2.96257066 10.0002417,3.87717065 10.0002417,4.99954168 C10.0002417,6.12259171 9.10288964,7.03651271 8.0002,7.03651271 C6.89751036,7.03651271 6.00015834,6.12259171 6.00015834,4.99954168 C6.00015834,3.87717065 6.89751036,2.96257066 8.0002,2.96257066 Z" id="path-1"></path>
    </defs>
    <g id="Final" stroke="none" stroke-width="1" fill="none" fill-rule="evenodd">
        <g id="All-Nucleo-Icons" transform="translate(-319.000000, -7320.000000)">
            <g id="Solo/Nucleo/16px/beacon" transform="translate(315.000000, 7313.000000)">
                <g transform="translate(4.000000, 7.000000)">
                    <mask id="mask-2" fill="white">
                        <use xlink:href="#path-1"></use>
                    </mask>
                    <use id="Mask" fill="#000000" xlink:href="#path-1"></use>
                    <g id="colour/neutral/chia" mask="url(#mask-2)" fill="#737373">
                        <g transform="translate(-24.000000, -27.000000)" id="Colour">
                            <rect x="0" y="0" width="64" height="64"></rect>
                        </g>
                    </g>
                </g>
            </g>
        </g>
    </g>
</svg>

<svg width="16" height="10" xmlns="http://www.w3.org/2000/svg" xmlns:xlink="http://www.w3.org/1999/xlink"><defs><path d="M14.047.199c2.604 2.652 2.604 6.95 0 9.602a.657.657 0 01-.86.072l-.082-.072a.687.687 0 010-.96c2.082-2.12 2.083-5.558.002-7.679l-.003-.003a.688.688 0 01-.07-.876l.07-.084a.659.659 0 01.943 0zm-11.152 0c.26.265.26.695 0 .96-2.023 2.06-2.08 5.365-.173 7.496l.174.185a.69.69 0 01.07.876l-.07.085a.657.657 0 01-.86.072L1.952 9.8c-2.604-2.652-2.604-6.95 0-9.602a.659.659 0 01.942 0zm9.267 1.921a4.126 4.126 0 010 5.76.657.657 0 01-.86.072l-.083-.071a.688.688 0 010-.96 2.751 2.751 0 000-3.84.688.688 0 010-.96.657.657 0 01.943 0zm-7.381 0c.26.264.26.694 0 .959a2.751 2.751 0 000 3.84v.002c.26.264.26.693 0 .959a.657.657 0 01-.86.072l-.083-.071a4.126 4.126 0 01-.002-5.759l.002-.003a.657.657 0 01.943 0zM8 2.962c1.102 0 2 .914 2 2.037 0 1.123-.898 2.037-2 2.037-1.103 0-2-.914-2-2.037 0-1.123.897-2.037 2-2.037z" id="beacon-16px_svg__a"/></defs><use fill="#737373" xlink:href="#beacon-16px_svg__a" fill-rule="evenodd"/></svg>
